X:492
T: SCHOEN SIND ROSEN UND JASMIN
N: F0936
O: Europa, Mitteleuropa, Deutschland
R: Liebes - Lied
M: 4/4
L: 1/8
K: Eb
BeGA | BeGABeBc | B4
AcFA | GBFAG4 | Fz3
BeGA | BeGABeBc | B4
AcFA | GBFAG4 | F2z2
B2=AB | c2Bcd2cd | e4
dfce | dfec=A4 | B4
BeGA | BeGABeBc | B4
AcFA | GBEGFADF | Ez3
AcFA | GBEGFADF | Ez3

